!!!SOCIAL_FUNCTION:	songs with hunting dance
!!!PDT:	1956
!!!OTL: No_61_Calusa_Hunting_Dance_Song_(e).krn
!!!LANG: Non-Tone
!!!LING_GROUP: Muskogean
!!!REG: Florida
**kern
*staff1
=1-
*clefF4
*k[]
*M2/4
8c\L
8c\J
8.d\L
16c\Jk
=2
8.c\L
16c\Jk
4c\
=3
8d\L
8c\J
4c\
=4
16d\LL
16c\J
8c\J
4c\
=5
16d\LL
16c\J
8c\J
4c\
=6
8.c\L
16c\Jk
8.c\L
16A\Jk
=7
8.G\L
16G\Jk
4G\
=8||
*M3/4
8c\L
8G\J
[4G\
8G\L]
16F\L
16D\JJ
=9||
*M2/4
8G\L
8G\J
8G\
8r
=10
8E/L
8C/J
4C/
=11
8.E\L
16E\Jk
8.E/L
16C/Jk
=12
8.C/L
16C/Jk
4C/
=13
8E/L
16C/L
16C/JJ
4C/
=14
8E/L
16C/L
16C/JJ
4C/
=15
8E/L
16C/L
16C/JJ
4C/
==
*-
